images/partners/partner-1.svg

<svg width="79" height="20" viewBox="0 0 79 20" fill="none" xmlns="http://www.w3.org/2000/svg">
<g clip-path="url(#clip0_43_1753)">
<path d="M0.453735 14.8317L0.453737 4.94336L5.30419 7.69013V12.1124L9.18459 14.3373L13.0649 12.1124V7.69013L17.9154 4.94336V14.8317L9.18459 19.7759L0.453735 14.8317Z" fill="#D1D1D1"/>
<path fill-rule="evenodd" clip-rule="evenodd" d="M2.87897 6.31758L0.453735 4.94418L9.18459 0L17.9154 4.94418L15.4902 6.31758V13.5965L9.18459 17.3046L2.87897 13.5965L2.87897 6.31758ZM15.2275 6.46637L13.0649 7.69095V7.66347L9.18459 5.43858L5.30419 7.66347V7.69095L3.1417 6.46637V13.4444L9.18459 16.998L15.2275 13.4444V6.46637Z" fill="#D1D1D1"/>
<path d="M22.5641 14.0504V5.74414H24.1007V12.6264H27.8259V14.0504H22.5641Z" fill="#D1D1D1"/>
<path d="M31.1435 14.2178C30.5692 14.2178 30.0531 14.0992 29.5953 13.8618C29.1374 13.6245 28.7765 13.2804 28.5126 12.8295C28.2487 12.3786 28.1168 11.8367 28.1168 11.2038V11.0139C28.1168 10.3811 28.2487 9.83921 28.5126 9.38832C28.7765 8.93742 29.1374 8.59332 29.5953 8.356C30.0531 8.11863 30.5692 8 31.1435 8C31.7178 8 32.2339 8.11863 32.6918 8.356C33.1497 8.59332 33.5106 8.93742 33.7744 9.38832C34.0383 9.83921 34.1702 10.3811 34.1702 11.0139V11.2038C34.1702 11.8367 34.0383 12.3786 33.7744 12.8295C33.5106 13.2804 33.1497 13.6245 32.6918 13.8618C32.2339 14.0992 31.7178 14.2178 31.1435 14.2178ZM31.1435 12.8888C31.5936 12.8888 31.9662 12.7425 32.2611 12.4497C32.556 12.1492 32.7034 11.7219 32.7034 11.1682V11.0496C32.7034 10.4958 32.556 10.0726 32.2611 9.77989C31.9739 9.47932 31.6014 9.329 31.1435 9.329C30.6934 9.329 30.3209 9.47932 30.026 9.77989C29.7311 10.0726 29.5836 10.4958 29.5836 11.0496V11.1682C29.5836 11.7219 29.7311 12.1492 30.026 12.4497C30.3209 12.7425 30.6934 12.8888 31.1435 12.8888Z" fill="#D1D1D1"/>
<path d="M34.7209 11.1326V10.9428C34.7209 10.3257 34.8412 9.79968 35.0818 9.36458C35.3224 8.92158 35.6406 8.58537 36.0364 8.356C36.4399 8.11863 36.8784 8 37.3518 8C37.8796 8 38.2792 8.09495 38.5508 8.28479C38.8225 8.47463 39.0204 8.67242 39.1445 8.87811H39.3541V8.1661H40.7976V15.0959C40.7976 15.4993 40.6812 15.8197 40.4483 16.0571C40.2155 16.3023 39.9051 16.4249 39.5171 16.4249H35.6522V15.1196H39.0049C39.2221 15.1196 39.3308 15.0009 39.3308 14.7636V13.2329H39.1212C39.0436 13.3595 38.935 13.49 38.7953 13.6245C38.6556 13.7511 38.4694 13.8578 38.2366 13.9449C38.0037 14.0319 37.7088 14.0754 37.3518 14.0754C36.8784 14.0754 36.4399 13.9607 36.0364 13.7313C35.6406 13.4939 35.3224 13.1577 35.0818 12.7227C34.8412 12.2797 34.7209 11.7497 34.7209 11.1326ZM37.7709 12.7702C38.221 12.7702 38.5974 12.6238 38.9001 12.3311C39.2028 12.0384 39.3541 11.6271 39.3541 11.0971V10.9784C39.3541 10.4404 39.2028 10.0291 38.9001 9.74432C38.6052 9.45163 38.2288 9.30526 37.7709 9.30526C37.3208 9.30526 36.9444 9.45163 36.6417 9.74432C36.3391 10.0291 36.1877 10.4404 36.1877 10.9784V11.0971C36.1877 11.6271 36.3391 12.0384 36.6417 12.3311C36.9444 12.6238 37.3208 12.7702 37.7709 12.7702Z" fill="#D1D1D1"/>
<path d="M44.6473 14.2178C44.073 14.2178 43.5569 14.0992 43.099 13.8618C42.6411 13.6245 42.2802 13.2804 42.0164 12.8295C41.7525 12.3786 41.6206 11.8367 41.6206 11.2038V11.0139C41.6206 10.3811 41.7525 9.83921 42.0164 9.38832C42.2802 8.93742 42.6411 8.59332 43.099 8.356C43.5569 8.11863 44.073 8 44.6473 8C45.2216 8 45.7376 8.11863 46.1955 8.356C46.6534 8.59332 47.0143 8.93742 47.2781 9.38832C47.542 9.83921 47.674 10.3811 47.674 11.0139V11.2038C47.674 11.8367 47.542 12.3786 47.2781 12.8295C47.0143 13.2804 46.6534 13.6245 46.1955 13.8618C45.7376 14.0992 45.2216 14.2178 44.6473 14.2178ZM44.6473 12.8888C45.0974 12.8888 45.4699 12.7425 45.7648 12.4497C46.0597 12.1492 46.2072 11.7219 46.2072 11.1682V11.0496C46.2072 10.4958 46.0597 10.0726 45.7648 9.77989C45.4777 9.47932 45.1052 9.329 44.6473 9.329C44.1971 9.329 43.8247 9.47932 43.5297 9.77989C43.2348 10.0726 43.0874 10.4958 43.0874 11.0496V11.1682C43.0874 11.7219 43.2348 12.1492 43.5297 12.4497C43.8247 12.7425 44.1971 12.8888 44.6473 12.8888Z" fill="#D1D1D1"/>
<path d="M48.504 14.0505V8.16491H49.9707V14.0505H48.504ZM49.2373 7.4767C48.9735 7.4767 48.7484 7.3897 48.5622 7.21565C48.3837 7.0416 48.2944 6.81218 48.2944 6.52744C48.2944 6.24265 48.3837 6.01323 48.5622 5.83918C48.7484 5.66518 48.9735 5.57812 49.2373 5.57812C49.509 5.57812 49.734 5.66518 49.9125 5.83918C50.091 6.01323 50.1803 6.24265 50.1803 6.52744C50.1803 6.81218 50.091 7.0416 49.9125 7.21565C49.734 7.3897 49.509 7.4767 49.2373 7.4767Z" fill="#D1D1D1"/>
<path d="M51.0723 16.4249V8.1661H52.5158V8.87811H52.7255C52.8571 8.64868 53.0627 8.44695 53.3425 8.27289C53.6218 8.09095 54.0215 8 54.5414 8C55.0072 8 55.4378 8.11863 55.8333 8.356C56.2294 8.58537 56.5474 8.92553 56.788 9.37647C57.0287 9.82737 57.149 10.3732 57.149 11.0139V11.2038C57.149 11.8446 57.0287 12.3904 56.788 12.8413C56.5474 13.2923 56.2294 13.6364 55.8333 13.8737C55.4378 14.1031 55.0072 14.2178 54.5414 14.2178C54.1919 14.2178 53.8971 14.1743 53.6564 14.0873C53.4236 14.0082 53.2336 13.9053 53.0864 13.7787C52.9465 13.6443 52.8339 13.5098 52.7487 13.3753H52.5391V16.4249H51.0723ZM54.0989 12.9125C54.5569 12.9125 54.9334 12.7662 55.2282 12.4735C55.5308 12.1729 55.682 11.7378 55.682 11.1682V11.0496C55.682 10.48 55.5308 10.0488 55.2282 9.75616C54.9256 9.45558 54.5492 9.30526 54.0989 9.30526C53.6487 9.30526 53.2723 9.45558 52.9697 9.75616C52.6671 10.0488 52.5158 10.48 52.5158 11.0496V11.1682C52.5158 11.7378 52.6671 12.1729 52.9697 12.4735C53.2723 12.7662 53.6487 12.9125 54.0989 12.9125Z" fill="#D1D1D1"/>
<path d="M60.37 14.2178C59.6171 14.2178 59.0001 14.0517 58.5189 13.7194C58.0382 13.3872 57.747 12.9125 57.6458 12.2955L58.9965 11.9395C59.0507 12.2164 59.14 12.4339 59.264 12.5922C59.3961 12.7504 59.5552 12.8651 59.7416 12.9363C59.9352 12.9995 60.1448 13.0312 60.37 13.0312C60.7113 13.0312 60.9638 12.9718 61.1269 12.8532C61.2896 12.7266 61.3711 12.5724 61.3711 12.3904C61.3711 12.2085 61.2937 12.0701 61.1383 11.9751C60.9834 11.8723 60.735 11.7892 60.3932 11.7259L60.0674 11.6666C59.6636 11.5875 59.2949 11.4807 58.9614 11.3462C58.6278 11.2038 58.3599 11.01 58.158 10.7648C57.9566 10.5195 57.8554 10.2031 57.8554 9.81547C57.8554 9.2301 58.065 8.78316 58.4843 8.47463C58.903 8.15821 59.4545 8 60.1371 8C60.7815 8 61.3169 8.14637 61.7434 8.43905C62.1704 8.73174 62.4498 9.11542 62.582 9.59005L61.2199 10.0172C61.1579 9.71663 61.0298 9.503 60.8357 9.37647C60.6493 9.24989 60.4164 9.18658 60.1371 9.18658C59.8578 9.18658 59.6445 9.238 59.4968 9.34084C59.3497 9.43579 59.2758 9.57026 59.2758 9.74432C59.2758 9.93416 59.3533 10.0765 59.5087 10.1715C59.6636 10.2585 59.8732 10.3257 60.1371 10.3732L60.4629 10.4325C60.8977 10.5116 61.2896 10.6184 61.6391 10.7529C61.9959 10.8795 62.2753 11.0654 62.4771 11.3106C62.6868 11.5479 62.7916 11.8723 62.7916 12.2836C62.7916 12.9007 62.5701 13.3793 62.1276 13.7194C61.6933 14.0517 61.1073 14.2178 60.37 14.2178Z" fill="#D1D1D1"/>
<path d="M65.7528 14.1465C65.3031 14.1465 64.9071 14.0436 64.5658 13.838C64.2322 13.6244 63.972 13.3317 63.7856 12.9599C63.5997 12.5881 63.5062 12.1609 63.5062 11.6784V8.16602H64.9731V11.5597C64.9731 12.0027 65.078 12.335 65.2876 12.5564C65.5045 12.778 65.8112 12.8887 66.2072 12.8887C66.6569 12.8887 67.0065 12.7384 67.2549 12.4378C67.5032 12.1293 67.6271 11.7021 67.6271 11.1563V8.16602H69.0941V14.0516H67.6504V13.2803H67.4413C67.3478 13.4781 67.1733 13.6719 66.9172 13.8617C66.6611 14.0516 66.2728 14.1465 65.7528 14.1465Z" fill="#D1D1D1"/>
<path d="M70.2026 14.0508V8.16521H71.6458V8.806H71.8554C71.9561 8.60821 72.1234 8.43815 72.3558 8.29573C72.5886 8.14547 72.8953 8.07031 73.2759 8.07031C73.6869 8.07031 74.0168 8.15337 74.2652 8.31947C74.5136 8.47768 74.7036 8.68731 74.8358 8.94836H75.0449C75.1771 8.69526 75.3635 8.48563 75.6041 8.31947C75.8447 8.15337 76.186 8.07031 76.6285 8.07031C76.9853 8.07031 77.3075 8.14942 77.5946 8.30763C77.8894 8.45789 78.1223 8.69126 78.2932 9.00773C78.4713 9.31621 78.5606 9.70779 78.5606 10.1825V14.0508H77.0937V10.2893C77.0937 9.96489 77.0126 9.72363 76.8495 9.56542C76.6863 9.39931 76.4576 9.31621 76.1627 9.31621C75.8292 9.31621 75.569 9.427 75.3826 9.64847C75.2044 9.86205 75.1151 10.1706 75.1151 10.574V14.0508H73.6482V10.2893C73.6482 9.96489 73.5666 9.72363 73.4039 9.56542C73.2408 9.39931 73.012 9.31621 72.7167 9.31621C72.3831 9.31621 72.1234 9.427 71.937 9.64847C71.7584 9.86205 71.669 10.1706 71.669 10.574V14.0508H70.2026Z" fill="#D1D1D1"/>
</g>
<defs>
<clipPath id="clip0_43_1753">
<rect width="79" height="20" fill="white"/>
</clipPath>
</defs>
</svg>

<svg xmlns="http://www.w3.org/2000/svg" width="79" height="20" fill="none" viewBox="0 0 79 20"><g fill="#d1d1d1" clip-path="url(#a)"><path d="M.454 14.832V4.943l4.85 2.747v4.422l3.88 2.225 3.88-2.225V7.69l4.851-2.747v9.889l-8.73 4.944z"/><path fill-rule="evenodd" d="M2.879 6.318.454 4.944 9.184 0l8.731 4.944-2.425 1.374v7.279l-6.305 3.708-6.306-3.708zm12.349.148-2.163 1.225v-.028L9.185 5.44l-3.88 2.224v.028L3.141 6.466v6.978l6.043 3.554 6.042-3.554z" clip-rule="evenodd"/><path d="M22.564 14.05V5.744h1.537v6.882h3.725v1.424zM31.144 14.218q-.861 0-1.549-.356a2.64 2.64 0 0 1-1.082-1.033q-.396-.675-.396-1.625v-.19q0-.95.396-1.626a2.64 2.64 0 0 1 1.082-1.032A3.3 3.3 0 0 1 31.144 8q.861 0 1.548.356a2.64 2.64 0 0 1 1.082 1.032q.396.677.396 1.626v.19q0 .95-.396 1.625a2.64 2.64 0 0 1-1.082 1.033 3.3 3.3 0 0 1-1.549.356m0-1.33q.675 0 1.117-.438.442-.45.442-1.282v-.118q0-.83-.442-1.27-.43-.45-1.118-.451-.675 0-1.117.45-.442.44-.442 1.27v.12q0 .83.442 1.28.442.44 1.117.44M34.72 11.133v-.19q0-.925.362-1.578.36-.665.954-1.009A2.55 2.55 0 0 1 37.352 8q.791 0 1.199.285.407.284.593.593h.21v-.712h1.444v6.93q0 .605-.35.961-.35.368-.93.368h-3.866V15.12h3.353q.326-.001.326-.356v-1.531h-.21a2 2 0 0 1-.326.391q-.21.19-.558.32-.35.131-.885.131-.71 0-1.316-.344a2.63 2.63 0 0 1-.954-1.008q-.36-.665-.361-1.59m3.05 1.637q.676 0 1.13-.439.454-.44.454-1.234v-.119q0-.807-.454-1.234-.442-.439-1.13-.439-.675 0-1.128.44-.454.426-.454 1.233v.12q0 .794.454 1.233t1.129.44M44.647 14.218q-.861 0-1.548-.356a2.64 2.64 0 0 1-1.083-1.033q-.396-.675-.395-1.625v-.19q0-.95.395-1.626A2.64 2.64 0 0 1 43.1 8.356 3.3 3.3 0 0 1 44.647 8q.861 0 1.549.356a2.64 2.64 0 0 1 1.082 1.032q.396.677.396 1.626v.19q0 .95-.396 1.625a2.64 2.64 0 0 1-1.082 1.033 3.3 3.3 0 0 1-1.549.356m0-1.33q.675 0 1.118-.438.442-.45.442-1.282v-.118q0-.83-.442-1.27-.43-.45-1.118-.451-.675 0-1.117.45-.443.44-.443 1.27v.12q0 .83.443 1.28.442.44 1.117.44M48.504 14.05V8.166h1.467v5.886zm.733-6.573a.95.95 0 0 1-.675-.261q-.267-.261-.268-.689 0-.426.268-.688a.95.95 0 0 1 .675-.26q.408 0 .675.26.268.262.268.688 0 .428-.267.689a.93.93 0 0 1-.676.26M51.072 16.425V8.166h1.444v.712h.21q.197-.344.617-.605Q53.76 8 54.54 8q.7 0 1.292.356.594.345.955 1.02.36.677.361 1.638v.19q0 .96-.361 1.637-.36.676-.955 1.033a2.53 2.53 0 0 1-1.292.344 2.6 2.6 0 0 1-.885-.13 1.7 1.7 0 0 1-.57-.31 2.2 2.2 0 0 1-.337-.403h-.21v3.05zm3.027-3.513q.686 0 1.13-.439.453-.45.453-1.305v-.118q0-.855-.454-1.294-.453-.45-1.13-.45-.675 0-1.128.45-.454.44-.454 1.294v.118q0 .855.454 1.306.453.438 1.129.438M60.37 14.218q-1.13 0-1.851-.499-.72-.498-.873-1.423l1.35-.356q.082.414.268.652.198.237.478.344.29.095.628.095.512 0 .757-.178a.57.57 0 0 0 .244-.463.46.46 0 0 0-.233-.415q-.232-.154-.745-.25l-.326-.058a6 6 0 0 1-1.106-.32 2.1 2.1 0 0 1-.803-.582q-.302-.368-.303-.95 0-.878.63-1.34Q59.112 8 60.136 8q.967 0 1.606.439t.839 1.151l-1.362.427q-.093-.45-.384-.64-.28-.19-.699-.19t-.64.154a.45.45 0 0 0-.221.403q0 .284.233.428.232.13.628.201l.326.06q.653.118 1.176.32.535.19.838.558.315.355.315.973 0 .925-.664 1.435-.652.5-1.758.499M65.753 14.147q-.675 0-1.187-.309a2.2 2.2 0 0 1-.78-.878 2.8 2.8 0 0 1-.28-1.282V8.166h1.467v3.394q0 .665.315.996.324.333.92.333.674 0 1.047-.451.372-.463.372-1.282v-2.99h1.467v5.886H67.65v-.772h-.209q-.14.297-.524.582-.384.284-1.164.284M70.203 14.05V8.166h1.443v.641h.21q.15-.297.5-.51.35-.226.92-.226.615 0 .99.25.372.237.57.628h.209q.198-.379.56-.629.36-.249 1.023-.249.536 0 .967.238.441.225.698.7.267.462.268 1.175v3.868h-1.467v-3.762q0-.486-.244-.724-.245-.249-.687-.249-.501 0-.78.332-.268.321-.268.926v3.477h-1.467v-3.762q0-.486-.244-.724-.244-.249-.687-.249-.501 0-.78.332-.268.321-.268.926v3.477z"/></g><defs><clipPath id="a"><path fill="#fff" d="M0 0h79v20H0z"/></clipPath></defs></svg>
